public/assets/img/insta.svg

<svg width="20" height="20" viewBox="0 0 20 20" fill="none" xmlns="http://www.w3.org/2000/svg">
<path fill-rule="evenodd" clip-rule="evenodd" d="M0 10C0 4.47715 4.47715 0 10 0C15.5228 0 20 4.47715 20 10C20 15.5228 15.5228 20 10 20C4.47715 20 0 15.5228 0 10ZM10.0005 4.66667C8.55204 4.66667 8.37026 4.673 7.80137 4.69889C7.23358 4.72489 6.84602 4.81478 6.50691 4.94667C6.15613 5.08289 5.85857 5.26512 5.56212 5.56168C5.26545 5.85812 5.08323 6.15568 4.94656 6.50635C4.81433 6.84558 4.72433 7.23325 4.69878 7.80081C4.67333 8.36971 4.66667 8.5516 4.66667 10.0001C4.66667 11.4485 4.67311 11.6297 4.69889 12.1986C4.725 12.7664 4.81489 13.154 4.94667 13.4931C5.083 13.8439 5.26523 14.1414 5.56179 14.4379C5.85812 14.7345 6.15568 14.9172 6.50624 15.0534C6.84558 15.1853 7.23325 15.2752 7.80092 15.3012C8.36982 15.3271 8.55148 15.3334 9.99983 15.3334C11.4484 15.3334 11.6296 15.3271 12.1985 15.3012C12.7663 15.2752 13.1543 15.1853 13.4936 15.0534C13.8443 14.9172 14.1414 14.7345 14.4378 14.4379C14.7344 14.1414 14.9167 13.8439 15.0533 13.4932C15.1844 13.154 15.2744 12.7663 15.3011 12.1987C15.3267 11.6299 15.3333 11.4485 15.3333 10.0001C15.3333 8.5516 15.3267 8.36982 15.3011 7.80092C15.2744 7.23314 15.1844 6.84558 15.0533 6.50646C14.9167 6.15568 14.7344 5.85812 14.4378 5.56168C14.1411 5.26501 13.8444 5.08278 13.4933 4.94667C13.1533 4.81478 12.7655 4.72489 12.1977 4.69889C11.6289 4.673 11.4477 4.66667 9.99883 4.66667H10.0005Z" fill="#ACBDCE"/>
<path fill-rule="evenodd" clip-rule="evenodd" d="M9.52205 5.62779C9.66405 5.62757 9.8225 5.62779 10.0005 5.62779C11.4245 5.62779 11.5933 5.6329 12.1556 5.65845C12.6756 5.68223 12.9579 5.76912 13.1459 5.84212C13.3948 5.93879 13.5722 6.05435 13.7588 6.24102C13.9454 6.42768 14.061 6.60546 14.1579 6.85436C14.2309 7.04214 14.3179 7.32436 14.3415 7.84437C14.3671 8.40659 14.3727 8.57549 14.3727 9.99883C14.3727 11.4222 14.3671 11.5911 14.3415 12.1533C14.3178 12.6733 14.2309 12.9555 14.1579 13.1433C14.0612 13.3922 13.9454 13.5694 13.7588 13.756C13.5721 13.9427 13.3949 14.0582 13.1459 14.1549C12.9581 14.2282 12.6756 14.3149 12.1556 14.3387C11.5934 14.3642 11.4245 14.3698 10.0005 14.3698C8.57637 14.3698 8.40759 14.3642 7.84537 14.3387C7.32536 14.3147 7.04314 14.2278 6.85502 14.1548C6.60613 14.0581 6.42835 13.9425 6.24168 13.7559C6.05501 13.5692 5.93946 13.3919 5.84257 13.1429C5.76957 12.9551 5.68257 12.6729 5.6589 12.1529C5.63334 11.5906 5.62823 11.4217 5.62823 9.9975C5.62823 8.57326 5.63334 8.40526 5.6589 7.84303C5.68268 7.32303 5.76957 7.0408 5.84257 6.8528C5.93924 6.60391 6.05501 6.42613 6.24168 6.23946C6.42835 6.05279 6.60613 5.93724 6.85502 5.84035C7.04302 5.76701 7.32536 5.68034 7.84537 5.65645C8.33737 5.63423 8.52804 5.62757 9.52205 5.62645V5.62779ZM12.8474 6.51335C12.4941 6.51335 12.2074 6.79969 12.2074 7.15314C12.2074 7.50647 12.4941 7.79314 12.8474 7.79314C13.2008 7.79314 13.4874 7.50647 13.4874 7.15314C13.4874 6.7998 13.2008 6.51335 12.8474 6.51335ZM10.0005 7.26114C8.48793 7.26114 7.26158 8.48748 7.26158 10.0001C7.26158 11.5126 8.48793 12.7384 10.0005 12.7384C11.5131 12.7384 12.739 11.5126 12.739 10.0001C12.739 8.48748 11.5131 7.26114 10.0005 7.26114Z" fill="#ACBDCE"/>
<path fill-rule="evenodd" clip-rule="evenodd" d="M10.0005 8.22226C10.9823 8.22226 11.7783 9.01816 11.7783 10.0001C11.7783 10.9818 10.9823 11.7779 10.0005 11.7779C9.0186 11.7779 8.2227 10.9818 8.2227 10.0001C8.2227 9.01816 9.0186 8.22226 10.0005 8.22226Z" fill="#ACBDCE"/>
</svg>

<svg width="20" height="20" fill="none" xmlns="http://www.w3.org/2000/svg"><path fill-rule="evenodd" clip-rule="evenodd" d="M0 10C0 4.477 4.477 0 10 0s10 4.477 10 10-4.477 10-10 10S0 15.523 0 10Zm10-5.333c-1.448 0-1.63.006-2.199.032-.567.026-.955.116-1.294.248-.35.136-.648.318-.945.615a2.618 2.618 0 0 0-.615.944c-.133.34-.223.727-.248 1.295-.026.569-.032.75-.032 2.2 0 1.447.006 1.629.032 2.198.026.567.116.955.248 1.294.136.35.318.648.615.945.296.296.594.48.944.615.34.132.727.222 1.295.248.569.026.75.032 2.199.032 1.448 0 1.63-.006 2.198-.032.568-.026.956-.116 1.296-.248a2.61 2.61 0 0 0 .944-.615c.296-.297.479-.594.615-.945.131-.339.221-.727.248-1.294.026-.57.032-.75.032-2.199 0-1.448-.006-1.63-.032-2.2-.027-.567-.117-.954-.248-1.294a2.617 2.617 0 0 0-.615-.944 2.607 2.607 0 0 0-.945-.615c-.34-.132-.728-.222-1.295-.248-.57-.026-.75-.032-2.2-.032h.003Z" fill="#ACBDCE"/><path fill-rule="evenodd" clip-rule="evenodd" d="M9.522 5.628h.479c1.424 0 1.592.005 2.155.03.52.024.802.111.99.184.249.097.426.212.613.399.186.187.302.364.399.613.073.188.16.47.184.99.025.563.03.731.03 2.155 0 1.423-.005 1.592-.03 2.154-.024.52-.111.803-.184.99a1.65 1.65 0 0 1-.4.613 1.65 1.65 0 0 1-.612.399c-.188.073-.47.16-.99.184-.563.025-.732.03-2.155.03-1.425 0-1.593-.005-2.156-.03-.52-.024-.802-.111-.99-.184a1.653 1.653 0 0 1-.613-.4 1.653 1.653 0 0 1-.4-.612c-.072-.188-.16-.47-.183-.99-.026-.562-.03-.731-.03-2.155 0-1.425.004-1.593.03-2.155.024-.52.11-.802.184-.99.096-.25.212-.427.399-.614.186-.186.364-.302.613-.399.188-.073.47-.16.99-.184.492-.022.683-.028 1.677-.03v.002Zm3.325.885a.64.64 0 1 0 0 1.28.64.64 0 0 0 0-1.28Zm-2.846.748a2.739 2.739 0 1 0 0 5.478 2.739 2.739 0 0 0 0-5.478Z" fill="#ACBDCE"/><path fill-rule="evenodd" clip-rule="evenodd" d="M10 8.222a1.778 1.778 0 1 1 0 3.556 1.778 1.778 0 0 1 0-3.556Z" fill="#ACBDCE"/></svg>
